!!!OTL: NACHTIGALL ICH HOER DICH SINGEN
!!!ARE: Europa, Mitteleuropa, Deutschland
!!!SCT: Z0282
!!!YEM: Copyright 1995, estate of Helmut Schaffrath.
**kern
*ICvox
*Ivox
*M4/4
*k[b-]
*F:
{4c
4c
=1
4f
4a
4a
8g
8f
=2
4g
4c}
{4c
4c
=3
4g
4b-
4b-
8a
8g
=4
4a
4f}
{4c
4c
=5
4f
4a
4a
8g
8f
=6
2g}
{4b-
4b-
=7
4a
8b-
8g
4f
4e
=8
2f}
==
!!!AGN: Lyrisches Lied, Romanze
!!!ONB: ESAC (Essen Associative Code) Database: ZUCCAL
!!!AMT: simple quadruple
!!!AIN: vox
!!!EED: Helmut Schaffrath
!!!EEV: 1.0
*-
